X: 1
T: Party Fling, The
M: 4/4
L: 1/8
R: strathspey
K: Gmaj
|:BGED B,DDB,|CEEC B,DGA|BGED B,DDB,|EGFA G4:|
|:GABc dBGB|(3cBA BG AGEG|1 GABc dBGD|
EGFA G3 A:|2GEDC B,DDd|cAFA G3 A||
